site/static/img/logo.svg

<?xml version="1.0" encoding="UTF-8"?>
<svg width="70px" height="179px" viewBox="0 0 70 179" version="1.1" xmlns="http://www.w3.org/2000/svg" xmlns:xlink="http://www.w3.org/1999/xlink">
    <title>Keywork Logo</title>
    <defs>
        <linearGradient x1="50%" y1="0%" x2="35.6971219%" y2="100%" id="linearGradient-1">
            <stop stop-color="#151515" offset="0%"></stop>
            <stop stop-color="#0073AC" offset="7.95840672%"></stop>
            <stop stop-color="#000000" offset="78.5456728%"></stop>
            <stop stop-color="#000000" offset="100%"></stop>
        </linearGradient>
        <path d="M32.99,0 L32.99,94.2380162 L26,98.2740162 L32.957318,102.290701 C32.9571042,102.292359 32.9568893,102.294017 32.9566734,102.295675 L25.9903811,98.2740162 L14.5022558,104.906184 L14.4981786,104.902936 L14.4903811,104.907991 C13.5621778,105.443889 12.4185843,105.443889 11.4903811,104.907991 L1.5,99.1400416 C0.57179677,98.6041432 2.66453526e-15,97.6137621 2.66453526e-15,96.5419653 L8.8817842e-16,85.006067 C3.10862447e-15,83.9342702 0.57179677,82.9438891 1.5,82.4079907 L6.572,79.4790162 L6.55417438,79.4692067 L6.554,72.0580162 L1.5,69.1400416 C0.57179677,68.6041432 7.99360578e-15,67.6137621 2.66453526e-15,66.5419653 L8.8817842e-16,55.006067 C3.10862447e-15,53.9342702 0.57179677,52.9438891 1.5,52.4079907 L12.9903811,45.7740162 L12.99,0 L19.9903811,4.04196534 C20.5949265,4.39099981 21.2451563,4.62636996 21.911316,4.74807577 L21.911635,53.600432 C21.911635,53.6863382 21.9483676,53.7670032 22.0107267,53.8232327 L22.0621275,53.8605233 L22.7697728,54.2672969 C22.8444093,54.3102 22.9328552,54.3184934 23.0127996,54.2922644 L23.0708152,54.266121 L23.7631699,53.860908 C23.8367334,53.8178537 23.8876129,53.7461696 23.9050222,53.6646668 L23.911635,53.6019926 L23.9115955,4.77474336 C24.6327883,4.66277844 25.3381708,4.41851911 25.9903811,4.04196534 L25.9903811,4.04196534 L32.99,0 Z" id="path-2"></path>
        <radialGradient cx="-270.160198%" cy="6.85458688%" fx="-270.160198%" fy="6.85458688%" r="638.854966%" gradientTransform="translate(-2.701602,0.068546),scale(1.000000,0.186916),rotate(33.483025),translate(2.701602,-0.068546)" id="radialGradient-4">
            <stop stop-color="#7AE8FF" offset="0%"></stop>
            <stop stop-color="#F4FBFF" offset="27.4051869%"></stop>
            <stop stop-color="#F1F9FD" stop-opacity="0.996801495" offset="34.7949359%"></stop>
            <stop stop-color="#004C5B" stop-opacity="0.724897307" offset="46.5046816%"></stop>
            <stop stop-color="#003C48" stop-opacity="0.693306766" offset="54.4939306%"></stop>
            <stop stop-color="#00B4D8" stop-opacity="0.934018356" offset="69.5282977%"></stop>
            <stop stop-color="#00AACC" stop-opacity="0.913718526" offset="85.5887463%"></stop>
            <stop stop-color="#000000" stop-opacity="0.572281348" offset="100%"></stop>
        </radialGradient>
        <radialGradient cx="47.2455148%" cy="50%" fx="47.2455148%" fy="50%" r="113.528787%" gradientTransform="translate(0.472455,0.500000),scale(1.000000,0.886599),rotate(68.199034),translate(-0.472455,-0.500000)" id="radialGradient-5">
            <stop stop-color="#151515" offset="0%"></stop>
            <stop stop-color="#0073AC" offset="7.10017609%"></stop>
            <stop stop-color="#0088CC" offset="27.8571315%"></stop>
            <stop stop-color="#04334A" offset="44.9860035%"></stop>
            <stop stop-color="#06577F" offset="49.0682062%"></stop>
            <stop stop-color="#056290" offset="56.174369%"></stop>
            <stop stop-color="#006BA0" offset="72.042246%"></stop>
            <stop stop-color="#00ABFF" offset="92.8034684%"></stop>
            <stop stop-color="#00ABFF" offset="100%"></stop>
        </radialGradient>
        <path d="M37.6410162,0.803847577 L66.2820323,17.339746 C68.1384388,18.4115427 69.2820323,20.3923048 69.2820323,22.5358984 L69.2820323,55.6076952 C69.2820323,57.7512887 68.1384388,59.7320508 66.2820323,60.8038476 L37.6410162,77.339746 C35.7846097,78.4115427 33.4974226,78.4115427 31.6410162,77.339746 L3,60.8038476 C1.14359354,59.7320508 -1.24344979e-14,57.7512887 -1.24344979e-14,55.6076952 L-1.59872116e-14,22.5358984 C-9.76996262e-15,20.3923048 1.14359354,18.4115427 3,17.339746 L31.6410162,0.803847577 C33.4974226,-0.267949192 35.7846097,-0.267949192 37.6410162,0.803847577 Z M15.249,29.653 L31.8157582,38.1051916 C33.8483925,39.1422076 35.1168435,41.242456 35.0885636,43.524167 L35.0885636,43.524167 L34.8692989,61.1402888 C34.3071959,61.1653406 33.739625,61.0323588 33.2355716,60.7413434 L16.75,51.2233942 C15.8217968,50.6874958 15.25,49.6971148 15.25,48.625318 L15.249,29.653 Z" id="path-6"></path>
        <filter x="-0.5%" y="-0.4%" width="101.0%" height="100.9%" filterUnits="objectBoundingBox" id="filter-8">
            <feOffset dx="0.5" dy="0" in="SourceAlpha" result="shadowOffsetInner1"></feOffset>
            <feComposite in="shadowOffsetInner1" in2="SourceAlpha" operator="arithmetic" k2="-1" k3="1" result="shadowInnerInner1"></feComposite>
            <feColorMatrix values="0 0 0 0 1   0 0 0 0 1   0 0 0 0 1  0 0 0 0.5 0" type="matrix" in="shadowInnerInner1" result="shadowMatrixInner1"></feColorMatrix>
            <feOffset dx="0" dy="0.7" in="SourceAlpha" result="shadowOffsetInner2"></feOffset>
            <feComposite in="shadowOffsetInner2" in2="SourceAlpha" operator="arithmetic" k2="-1" k3="1" result="shadowInnerInner2"></feComposite>
            <feColorMatrix values="0 0 0 0 1   0 0 0 0 1   0 0 0 0 1  0 0 0 0.5 0" type="matrix" in="shadowInnerInner2" result="shadowMatrixInner2"></feColorMatrix>
            <feMerge>
                <feMergeNode in="shadowMatrixInner1"></feMergeNode>
                <feMergeNode in="shadowMatrixInner2"></feMergeNode>
            </feMerge>
        </filter>
        <linearGradient x1="44.3606084%" y1="0.760079717%" x2="81.5454335%" y2="82.0004047%" id="linearGradient-9">
            <stop stop-color="#F4FBFF" offset="0%"></stop>
            <stop stop-color="#E3E9ED" offset="1.56035188%"></stop>
            <stop stop-color="#F4FBFF" offset="4.5582961%"></stop>
            <stop stop-color="#00D5FF" offset="35.0621988%"></stop>
            <stop stop-color="#06D6FF" offset="48.8345821%"></stop>
            <stop stop-color="#007BB9" offset="56.4458242%"></stop>
            <stop stop-color="#06557C" offset="100%"></stop>
        </linearGradient>
        <path d="M34.6410162,78.9042599 L35.0876782,43.5260685 C35.1164981,41.2433693 33.847425,39.1420852 31.813667,38.1050824 L-0.9,21.42455 L-0.9,21.42455 C-0.195964861,20.3111036 0.311311553,19.509664 0.621829242,19.0202312 C0.932346931,18.5307984 1.51269841,17.9872507 2.36288368,17.3895882 L34.4529018,-2.51642836 L67.5060351,17.8741103 C69.1976491,18.91767 70.2626851,20.7312275 70.3500359,22.7169124 L71.9246545,58.5116253 L71.9246545,58.5116253 L52.1917561,69.9038256 L51.4496187,70.3322765 L37.4954834,78.3882804 C36.9792942,78.7021898 36.2546476,78.874183 35.3215439,78.9042599 C34.3884401,78.9343368 34.1615975,78.9343368 34.6410162,78.9042599 Z" id="path-10"></path>
        <filter x="-0.2%" y="-0.2%" width="100.4%" height="100.4%" filterUnits="objectBoundingBox" id="filter-11">
            <feOffset dx="0.3" dy="-0.2" in="SourceAlpha" result="shadowOffsetInner1"></feOffset>
            <feComposite in="shadowOffsetInner1" in2="SourceAlpha" operator="arithmetic" k2="-1" k3="1" result="shadowInnerInner1"></feComposite>
            <feColorMatrix values="0 0 0 0 0   0 0 0 0 0.835294118   0 0 0 0 1  0 0 0 0.21410706 0" type="matrix" in="shadowInnerInner1"></feColorMatrix>
        </filter>
    </defs>
    <g id="Keywork-Logo" stroke="none" stroke-width="1" fill="none" fill-rule="evenodd">
        <g>
            <g id="Key-blade" transform="translate(41.145635, 125.952738) scale(-1, 1) translate(-41.145635, -125.952738) translate(24.650635, 73.297781)">
                <mask id="mask-3" fill="white">
                    <use xlink:href="#path-2"></use>
                </mask>
                <use id="Key-body" fill="url(#linearGradient-1)" xlink:href="#path-2"></use>
                <rect id="Rectangle" fill="url(#radialGradient-4)" mask="url(#mask-3)" x="22.9185843" y="-1.867" width="20" height="107"></rect>
            </g>
            <mask id="mask-7" fill="white">
                <use xlink:href="#path-6"></use>
            </mask>
            <g id="Head-box">
                <use fill="url(#radialGradient-5)" fill-rule="evenodd" xlink:href="#path-6"></use>
                <use fill="black" fill-opacity="1" filter="url(#filter-8)" xlink:href="#path-6"></use>
            </g>
            <g id="Box-lighting" mask="url(#mask-7)">
                <use fill="url(#linearGradient-9)" fill-rule="evenodd" xlink:href="#path-10"></use>
                <use fill="black" fill-opacity="1" filter="url(#filter-11)" xlink:href="#path-10"></use>
            </g>
        </g>
    </g>
</svg>

<svg width="70" height="179" xmlns="http://www.w3.org/2000/svg" xmlns:xlink="http://www.w3.org/1999/xlink"><defs><path d="M32.99 0v94.238016l-6.99 4.036 6.957318 4.016685a4.026437 4.026437 0 0 1-.000645.004974l-6.966292-4.021659-11.488125 6.632168-.004077-.003248-.007798.005055c-.928203.535898-2.071797.535898-3 0L1.5 99.140041C.571797 98.604144 0 97.613763 0 96.541966V85.006067c0-1.071797.571797-2.062178 1.5-2.598076l5.072-2.928975-.017826-.00981-.000174-7.41119L1.5 69.140042c-.928203-.535899-1.5-1.52628-1.5-2.598077V55.006067c0-1.071797.571797-2.062178 1.5-2.598076l11.490381-6.633975L12.99 0l7.000381 4.041965c.604546.349035 1.254775.584405 1.920935.70611l.000319 48.852357c0 .085906.036733.166571.099092.2228l.0514.037291.707646.406774c.074636.042903.163082.051196.243027.024967l.058015-.026143.692355-.405213c.073563-.043054.124443-.114738.141852-.196241l.006613-.062674-.00004-48.82725c.721193-.111965 1.426576-.356224 2.078786-.732778L32.99 0Z" id="a"/><path d="m36 17.866025 16.485572 9.51795c.928203.535898 1.5 1.526279 1.5 2.598076v19.035898c0 1.071797-.571797 2.062178-1.5 2.598076L36 61.133975c-.928203.535898-2.071797.535898-3 0l-16.485572-9.51795c-.928203-.535898-1.5-1.526279-1.5-2.598076V29.982051c0-1.071797.571797-2.062178 1.5-2.598076L33 17.866025c.928203-.535898 2.071797-.535898 3 0Z" id="f"/><path d="m37.641016.803848 28.641016 16.535898c1.856407 1.071797 3 3.052559 3 5.196152v33.071797c0 2.143594-1.143593 4.124356-3 5.196153L37.641016 77.339746c-1.856406 1.071797-4.143593 1.071797-6 0L3 60.803848c-1.856406-1.071797-3-3.05256-3-5.196153V22.535898c0-2.143593 1.143594-4.124355 3-5.196152L31.641016.803848c1.856407-1.071797 4.143594-1.071797 6 0ZM15.249 29.653l16.566758 8.452192c2.032635 1.037016 3.301086 3.137264 3.272806 5.418975l-.219265 17.616122c-.562103.025052-1.129674-.10793-1.633727-.398946L16.75 51.223394c-.928203-.535898-1.5-1.52628-1.5-2.598076L15.249 29.653Z" id="h"/><path d="m34.641016 78.90426.446654-35.377555c.029914-2.284049-1.239653-4.38697-3.275296-5.423276C16.438729 30.259957 5.36675 24.612147-1.403561 21.16c-7.248564-3.696006-7.08071-3.607823.503561.26455.38835-1.256812.737785-2.129934 1.048303-2.619367.310517-.489433 1.048711-.961298 2.21458-1.415595L34.452903-2.516428 67.506035 17.87411c1.691614 1.04356 2.75665 2.857117 2.844 4.842802l1.57462 35.794713-19.732899 11.3922-.742137.428452-13.954136 8.056003c-.516189.31391-1.240835.485903-2.17394.51598-.933103.030077-1.159945.030077-.680527 0Z" id="m"/><radialGradient cx="-270.160198%" cy="6.854587%" fx="-270.160198%" fy="6.854587%" r="638.854966%" gradientTransform="matrix(.83405 .10312 -.55169 .1559 -.410517 .336448)" id="c"><stop stop-color="#7AE8FF" offset="0%"/><stop stop-color="#F4FBFF" offset="27.405187%"/><stop stop-color="#F1F9FD" stop-opacity=".996801" offset="34.794936%"/><stop stop-color="#004C5B" stop-opacity=".724897" offset="46.504682%"/><stop stop-color="#003C48" stop-opacity=".693307" offset="54.493931%"/><stop stop-color="#00B4D8" stop-opacity=".934018" offset="69.528298%"/><stop stop-color="#0AC" stop-opacity=".913719" offset="85.588746%"/><stop stop-opacity=".572281" offset="100%"/></radialGradient><radialGradient cx="28.859336%" cy="63.002562%" fx="28.859336%" fy="63.002562%" r="62.012004%" id="e"><stop stop-color="#FFF" offset="0%"/><stop stop-color="#C6ECFF" offset="100%"/></radialGradient><radialGradient cx="47.245515%" cy="50%" fx="47.245515%" fy="50%" r="113.528787%" gradientTransform="matrix(.37138 .82319 -.92848 .32927 .761233 -.053554)" id="i"><stop stop-color="#151515" offset="0%"/><stop stop-color="#0073AC" offset="7.100176%"/><stop stop-color="#08C" offset="27.857132%"/><stop stop-color="#04334A" offset="44.986004%"/><stop stop-color="#06577F" offset="49.068206%"/><stop stop-color="#056290" offset="56.174369%"/><stop stop-color="#006BA0" offset="72.042246%"/><stop stop-color="#00ABFF" offset="92.803468%"/><stop stop-color="#00ABFF" offset="100%"/></radialGradient><filter x="-.8%" y="-.8%" width="101.6%" height="101.6%" filterUnits="objectBoundingBox" id="g"><feOffset dx=".5" in="SourceAlpha" result="shadowOffsetInner1"/><feComposite in="shadowOffsetInner1" in2="SourceAlpha" operator="arithmetic" k2="-1" k3="1" result="shadowInnerInner1"/><feColorMatrix values="0 0 0 0 1 0 0 0 0 1 0 0 0 0 1 0 0 0 0.5 0" in="shadowInnerInner1" result="shadowMatrixInner1"/><feOffset dy=".7" in="SourceAlpha" result="shadowOffsetInner2"/><feComposite in="shadowOffsetInner2" in2="SourceAlpha" operator="arithmetic" k2="-1" k3="1" result="shadowInnerInner2"/><feColorMatrix values="0 0 0 0 1 0 0 0 0 1 0 0 0 0 1 0 0 0 0.5 0" in="shadowInnerInner2" result="shadowMatrixInner2"/><feMerge><feMergeNode in="shadowMatrixInner1"/><feMergeNode in="shadowMatrixInner2"/></feMerge></filter><filter x="-.5%" y="-.4%" width="101%" height="100.9%" filterUnits="objectBoundingBox" id="j"><feOffset dx=".5" in="SourceAlpha" result="shadowOffsetInner1"/><feComposite in="shadowOffsetInner1" in2="SourceAlpha" operator="arithmetic" k2="-1" k3="1" result="shadowInnerInner1"/><feColorMatrix values="0 0 0 0 1 0 0 0 0 1 0 0 0 0 1 0 0 0 0.5 0" in="shadowInnerInner1" result="shadowMatrixInner1"/><feOffset dy=".7" in="SourceAlpha" result="shadowOffsetInner2"/><feComposite in="shadowOffsetInner2" in2="SourceAlpha" operator="arithmetic" k2="-1" k3="1" result="shadowInnerInner2"/><feColorMatrix values="0 0 0 0 1 0 0 0 0 1 0 0 0 0 1 0 0 0 0.5 0" in="shadowInnerInner2" result="shadowMatrixInner2"/><feMerge><feMergeNode in="shadowMatrixInner1"/><feMergeNode in="shadowMatrixInner2"/></feMerge></filter><filter x="-.2%" y="-.2%" width="100.4%" height="100.4%" filterUnits="objectBoundingBox" id="n"><feOffset dx=".3" dy="-.2" in="SourceAlpha" result="shadowOffsetInner1"/><feComposite in="shadowOffsetInner1" in2="SourceAlpha" operator="arithmetic" k2="-1" k3="1" result="shadowInnerInner1"/><feColorMatrix values="0 0 0 0 0 0 0 0 0 0.835294118 0 0 0 0 1 0 0 0 0.21410706 0" in="shadowInnerInner1"/></filter><linearGradient x1="50%" y1="0%" x2="35.697122%" y2="100%" id="b"><stop stop-color="#151515" offset="0%"/><stop stop-color="#0073AC" offset="7.958407%"/><stop offset="78.545673%"/><stop offset="100%"/></linearGradient><linearGradient x1="43.423724%" y1=".76008%" x2="86.786146%" y2="82.000405%" id="l"><stop stop-color="#F4FBFF" offset="0%"/><stop stop-color="#E3E9ED" offset="1.560352%"/><stop stop-color="#F4FBFF" offset="4.558296%"/><stop stop-color="#00D5FF" offset="35.062199%"/><stop stop-color="#06D6FF" offset="48.834582%"/><stop stop-color="#007BB9" offset="56.445824%"/><stop stop-color="#06557C" offset="100%"/></linearGradient></defs><g fill="none" fill-rule="evenodd"><g transform="matrix(-1 0 0 1 57.640635 73.297781)"><mask id="d" fill="#fff"><use xlink:href="#a"/></mask><use fill="url(#b)" xlink:href="#a"/><path fill="url(#c)" mask="url(#d)" d="M22.918584-1.867h20v107h-20z"/></g><use fill="url(#e)" xlink:href="#f"/><use fill="#000" filter="url(#g)" xlink:href="#f"/><mask id="k" fill="#fff"><use xlink:href="#h"/></mask><use fill="url(#i)" xlink:href="#h"/><use fill="#000" filter="url(#j)" xlink:href="#h"/><g mask="url(#k)"><use fill="url(#l)" xlink:href="#m"/><use fill="#000" filter="url(#n)" xlink:href="#m"/></g></g></svg>
